X:1
T:Title
%%score { 1 | 2 }
L:1/8
M:4/4
K:Bb
V:1 treble nm="Grand Piano"
V:2 bass 
V:1
 z4 z2[Q:1/4=100] F2 | [DB]2 [DB][DB] [DB]2 [FA][EG] | [DF]4 [B,D]2 [DF]2 | %3
 [DB]2 [DB][DB] [FB]2 [Fc][Fd] | c6 F2 | [DB]2 [DB][DB] [DB]2 [FA][EG] | [DF]4 [B,D]2 [DF]2 | %7
 [DB]2 [DB][DB] [DB]2 [Fd][Ec] | [B,DB]6 F2 | c2 cc c2 de | d4 [DB]2 F2 | G2 GG [=EG]2 [Ec][Ed] | %12
 c6 F2 | [Fd]2 [DB][DB] [FB]2 [Fc][Fd] | c4 G2 G2 | F2 FF F2 GA |[M:3/4] [DB]6 |] %17
V:2
 z4 z2 F,2 | [B,,B,]2 [B,,B,][B,,B,] [B,,F,]2 [B,,G,][B,,A,] | [B,,B,]4 [B,,F,]2 [B,,B,]2 | %3
 [B,,F,]2 [B,,F,][B,,F,] [D,B,]2 [C,A,][B,,B,] | [F,A,F]6 F,2 | %5
 [B,,B,]2 [B,,B,][B,,B,] [B,,F,]2 [B,,G,][B,,A,] | [B,,B,]4 [B,,F,]2 [B,,B,]2 | %7
 [B,,F,]2 [B,,F,][B,,F,] [B,,B,]2 [F,A,][F,A,] | B,,6 F,2 | %9
 [F,A,F]2 [F,A,F][F,A,F] [F,A,F]2 [F,B,F][F,CF] | [B,F]4[K:bass] [B,,B,]2 [D,B,]2 | %11
 [E,B,E]2 [E,B,E][E,B,E] [C,C]2 [C,G,][C,B,] | [F,A,F]6 F,2 | %13
 [B,,B,]2 [B,,F,][B,,F,] [D,B,]2 [C,A,][B,,B,] | [E,G,E]4 [E,B,E]2 [=E,B,_D]2 | %15
 [F,B,D]2 [F,B,D][F,B,D] [F,CE]2 [F,CE][F,CE] |[M:3/4] [B,,B,]6 |] %17

